svgs/sharp-solid/divide.svg

<svg xmlns="http://www.w3.org/2000/svg" viewBox="0 0 448 512"><!--! Font Awesome Pro 6.6.0 by @fontawesome - https://fontawesome.com License - https://fontawesome.com/license (Commercial License) Copyright 2024 Fonticons, Inc. --><path d="M176 48l0 96 96 0 0-96-96 0zm0 320l0 96 96 0 0-96-96 0zm224-80l32 0 0-64-32 0L48 224l-32 0 0 64 32 0 352 0z"/></svg>

<svg xmlns="http://www.w3.org/2000/svg" viewBox="0 0 448 512"><!--! Font Awesome Pro 6.5.2 by @fontawesome - https://fontawesome.com License - https://fontawesome.com/license (Commercial License) Copyright 2024 Fonticons, Inc. --><path d="M176 48v96h96V48H176zm0 320v96h96V368H176zm224-80h32V224H400 48 16v64H48 400z"/></svg>
